local/share/icons/dracula-icons-main/22/places/folder-documents.svg

<?xml version="1.0" encoding="UTF-8"?>
<svg xmlns="http://www.w3.org/2000/svg" xmlns:xlink="http://www.w3.org/1999/xlink" width="22" height="22" viewBox="0 0 22 22">
<path fill-rule="nonzero" fill="rgb(100%, 100%, 100%)" fill-opacity="1" d="M 7 4 C 5.890625 4 5 4.890625 5 6 L 5 16 C 5 17.109375 5.890625 18 7 18 L 15 18 C 16.109375 18 17 17.109375 17 16 L 17 8 L 13 4 Z M 7 6 L 12.171875 6 L 15 8.828125 L 15 16 L 7 16 Z M 7 6 "/>
</svg>

<svg width="22" height="22" version="1.1" viewBox="0 0 22 22" xmlns="http://www.w3.org/2000/svg">
 <defs>
  <style id="current-color-scheme" type="text/css">.ColorScheme-Text { color:#FFFFFF; } .ColorScheme-Highlight { color:#5294e2; }</style>
 </defs>
 <path class="ColorScheme-Text" d="m7 4c-1.108 0-2 0.892-2 2v10c0 1.108 0.892 2 2 2h8c1.108 0 2-0.892 2-2v-8l-4-4zm0 2h5.1719l2.8281 2.8281v7.1719h-8z" fill="currentColor"/>
</svg>
